X: 19
T:Ballyhoura Mountains
% Nottingham Music Database
S:Ireland, via PR
M:2/4
L:1/4
K:G
"G"B/2d/4B/4 A/2G/2|"C"E/2G/2 G/2A/2|"G"B/2d/4B/4 A/2G/2|"G"B/2d/2 "Em"e|\
"G"B/2d/4B/4 A/2G/2|"C"E/2G/2 G/2A/2|"G"B/2A/4B/4 "Am"d/2B/2|"D"A/2G/2 "G"G::
"G"g3/4e/4 d/2B/2|d/2B/2 A/2G/2|"G"g3/4e/4 d/2B/2|"Am"A/2B/2 "D"d|\
"G"g3/4e/4 d/2B/2|"G"d/2B/2 "C"A/2G/2|"G"B/2A/4B/4 "Am"d/2B/2|"D"A/2G/2 "G"G:|


